X:95
T: ES GIENG EINST EIN VERLIEBTES PAAR
N: E0052A
O: Europa, Mitteleuropa, Deutschland, Franken
R: erzaehlendes Volks - Lied, Sage, Mord, Verfuehrung
M: 3/4
L: 1/16
K: G
D2 | D2F2G6A2 | A2B2B6
G2 | G2B2d3cB2A2 | A4G4z2
d2 | e2c2c6e2 | d2B2B6
d2 | e2d2c6B2 | B4A4z2
D2 | D2G2G6A2 | A2B2B6
G2 | G2B2d3cB2A2 | A4G4z2

@@@ Tune index: 3745
